src/categories-icons-sprite/categories/svg-cat-home-textiles.svg

<svg width="32" height="32" viewBox="0 0 32 32" fill="none" xmlns="http://www.w3.org/2000/svg">
<path class="p-E63950" d="M27.25 30.125L28.1875 32H32V30.125H27.25Z" fill="#4D98CB"/>
<path class="p-FF637B" d="M28.1875 3.75L27.25 5.625H32V3.75H28.1875Z" fill="#76B7E2"/>
<path class="p-FF637B" d="M32 7.5H27.25V9.375H32V7.5Z" fill="#76B7E2"/>
<path class="p-FF637B" d="M32 11.3125H27.25V13.1875H32V11.3125Z" fill="#76B7E2"/>
<path class="p-FF637B" d="M32 15.0625H27.25V16.9375H32V15.0625Z" fill="#76B7E2"/>
<path class="p-E63950" d="M32 18.8125H27.25V20.6875H32V18.8125Z" fill="#4D98CB"/>
<path class="p-E63950" d="M32 22.625H27.25V24.5H32V22.625Z" fill="#4D98CB"/>
<path class="p-E63950" d="M32 26.375H27.25V28.25H32V26.375Z" fill="#4D98CB"/>
<path class="p-FBC56D" d="M28.1875 3.75V32H23.6313L19.5812 29.5999L14.2563 32H4.6875L6.16869 17.875L7.63125 3.75H12.25L17.7062 6.14994L21.625 3.75H28.1875Z" fill="#B9DFFC"/>
<path class="p-EBAE56" d="M28.1875 17.875V32H23.6313L19.5812 29.5999L14.2563 32H4.6875L6.16869 17.875H28.1875Z" fill="#A1D1FD"/>
<path class="p-FF637B" d="M23.6122 31.0438C23.5747 29.9938 23.0685 29.0562 22.1872 28.4937C21.8122 28.2312 21.606 27.8187 21.606 27.3687C21.606 26.9375 21.8122 26.5437 22.1872 26.2999C23.0873 25.7001 23.6122 24.6874 23.6122 23.6187C23.6122 22.5499 23.0685 21.5125 22.1872 20.9125C21.8122 20.6688 21.606 20.2562 21.606 19.8062C21.606 19.375 21.8122 18.9812 22.1872 18.7374C22.5435 18.5124 22.8248 18.2125 23.0498 17.875C23.4248 17.3499 23.6123 16.7125 23.6123 16.0562C23.6123 14.9874 23.0686 13.9937 22.1873 13.4312C21.8123 13.1687 21.606 12.7562 21.606 12.3062C21.606 11.875 21.8123 11.4812 22.1873 11.2374C23.0873 10.6376 23.6123 9.56244 23.6123 8.49369C23.6123 7.42494 23.0685 6.43125 22.206 5.86875C21.8122 5.60625 21.5872 5.175 21.606 4.70625L21.6247 3.75H12.2497L12.231 4.66875C12.2122 5.75631 12.7185 6.7875 13.656 7.42494C14.0122 7.66869 14.2372 8.0625 14.2372 8.49369C14.2372 8.94369 14.031 9.35625 13.6372 9.6C12.756 10.1813 12.231 11.2374 12.231 12.3062C12.2122 13.3749 12.756 14.3687 13.656 14.9874C14.0122 15.2312 14.2372 15.625 14.2372 16.0562C14.2372 16.5062 14.031 16.9188 13.6372 17.1625C13.3373 17.3499 13.0935 17.5937 12.8873 17.875C12.456 18.4187 12.231 19.0937 12.231 19.8062C12.2122 20.8749 12.756 21.9313 13.656 22.5499C14.0122 22.7937 14.2372 23.1875 14.2372 23.6187C14.2372 24.0687 14.031 24.4813 13.6372 24.725C12.756 25.3062 12.231 26.2999 12.231 27.3687C12.2122 28.4374 12.756 29.4313 13.656 30.0499C14.0122 30.2937 14.2185 30.6499 14.2372 31.0812L14.256 32H23.631L23.6122 31.0438Z" fill="#76B7E2"/>
<path class="p-E63950" d="M23.6309 32H14.2559L14.2372 31.0812C14.2184 30.6499 14.0122 30.2937 13.6559 30.0499C12.756 29.4313 12.2121 28.4374 12.2309 27.3687C12.2309 26.2999 12.756 25.3063 13.6372 24.725C14.031 24.4813 14.2372 24.0687 14.2372 23.6187C14.2372 23.1875 14.0122 22.7937 13.6559 22.5499C12.756 21.9313 12.2121 20.8749 12.2309 19.8062C12.2309 19.0937 12.4559 18.4187 12.8873 17.875H23.0497C22.8247 18.2125 22.5434 18.5124 22.1871 18.7374C21.8121 18.9812 21.6059 19.375 21.6059 19.8062C21.6059 20.2562 21.8121 20.6688 22.1871 20.9125C23.0684 21.5125 23.6121 22.5499 23.6121 23.6187C23.6121 24.6874 23.0872 25.7 22.1871 26.2999C21.8121 26.5437 21.6059 26.9375 21.6059 27.3687C21.6059 27.8187 21.8121 28.2312 22.1871 28.4937C23.0684 29.0562 23.5746 29.9938 23.6121 31.0438L23.6309 32Z" fill="#4D98CB"/>
<path class="p-FF637B" d="M9.375 4.6875V27.3125H0V4.6875C0 2.1 2.1 0 4.6875 0C7.275 0 9.375 2.1 9.375 4.6875Z" fill="#B9DFFC"/>
<path class="p-E63950" d="M9.375 4.6875V27.3125H4.6875V0C7.275 0 9.375 2.1 9.375 4.6875Z" fill="#76B7E2"/>
<path class="p-E63950" d="M4.6875 22.625C2.1 22.625 0 24.725 0 27.3125C0 29.9 2.1 32 4.6875 32C7.275 32 9.375 29.9 9.375 27.3125C9.375 24.725 7.275 22.625 4.6875 22.625Z" fill="#58ADE5"/>
<path class="p-AE2538" d="M9.375 27.3125C9.375 29.9 7.275 32 4.6875 32V22.625C7.275 22.625 9.375 24.725 9.375 27.3125Z" fill="#4D98CB"/>
</svg>

<svg width="32" height="32" fill="none" xmlns="http://www.w3.org/2000/svg"><path class="p-E63950" d="M27.25 30.125L28.188 32H32v-1.875h-4.75z" fill="#4D98CB"/><path class="p-FF637B" d="M28.188 3.75l-.938 1.875H32V3.75h-3.813zM32 7.5h-4.75v1.875H32V7.5zM32 11.313h-4.75v1.874H32v-1.874zM32 15.063h-4.75v1.874H32v-1.875z" fill="#76B7E2"/><path class="p-E63950" d="M32 18.813h-4.75v1.875H32v-1.875zM32 22.625h-4.75V24.5H32v-1.875zM32 26.375h-4.75v1.875H32v-1.875z" fill="#4D98CB"/><path class="p-FBC56D" d="M28.188 3.75V32H23.63l-4.05-2.4-5.325 2.4H4.687L6.17 17.875 7.63 3.75h4.619l5.456 2.4 3.919-2.4h6.563z" fill="#B9DFFC"/><path class="p-EBAE56" d="M28.188 17.875V32H23.63l-4.05-2.4-5.325 2.4H4.687L6.17 17.875h22.019z" fill="#A1D1FD"/><path class="p-FF637B" d="M23.612 31.044c-.037-1.05-.543-1.988-1.425-2.55a1.353 1.353 0 01-.581-1.125c0-.431.206-.825.581-1.07.9-.599 1.425-1.612 1.425-2.68a3.31 3.31 0 00-1.425-2.706 1.297 1.297 0 01-.581-1.107c0-.431.206-.825.581-1.069.357-.225.638-.524.863-.862a3.117 3.117 0 00.562-1.819 3.117 3.117 0 00-1.425-2.625 1.354 1.354 0 01-.581-1.125c0-.431.206-.825.581-1.069.9-.6 1.425-1.675 1.425-2.743a3.145 3.145 0 00-1.406-2.625 1.323 1.323 0 01-.6-1.163l.019-.956H12.25l-.019.919a3.236 3.236 0 001.425 2.756c.356.244.581.638.581 1.069 0 .45-.206.862-.6 1.106-.881.581-1.406 1.637-1.406 2.706-.019 1.069.525 2.063 1.425 2.681.356.244.581.638.581 1.07 0 .45-.206.862-.6 1.106-.3.187-.543.43-.75.712a3.084 3.084 0 00-.656 1.931 3.307 3.307 0 001.425 2.744c.356.244.581.637.581 1.069 0 .45-.206.862-.6 1.106a3.157 3.157 0 00-1.406 2.644c-.019 1.068.525 2.062 1.425 2.68.356.245.563.6.581 1.032l.019.919h9.375l-.019-.956z" fill="#76B7E2"/><path class="p-E63950" d="M23.63 32h-9.374l-.019-.919a1.282 1.282 0 00-.581-1.031c-.9-.619-1.444-1.613-1.425-2.681 0-1.07.525-2.063 1.406-2.644.394-.244.6-.656.6-1.106 0-.431-.225-.825-.581-1.07a3.307 3.307 0 01-1.425-2.743c0-.712.225-1.387.656-1.931H23.05a2.909 2.909 0 01-.863.862 1.256 1.256 0 00-.581 1.07c0 .45.206.862.581 1.106a3.31 3.31 0 011.425 2.706 3.219 3.219 0 01-1.425 2.68 1.256 1.256 0 00-.581 1.07c0 .45.206.862.581 1.125.881.562 1.388 1.5 1.425 2.55l.019.956z" fill="#4D98CB"/><path class="p-FF637B" d="M9.375 4.688v22.625H0V4.688A4.69 4.69 0 014.688 0a4.69 4.69 0 014.687 4.688z" fill="#B9DFFC"/><path class="p-E63950" d="M9.375 4.688v22.625H4.687V0a4.69 4.69 0 014.688 4.688z" fill="#76B7E2"/><path class="p-E63950" d="M4.688 22.625A4.69 4.69 0 000 27.313 4.69 4.69 0 004.688 32a4.69 4.69 0 004.687-4.688 4.69 4.69 0 00-4.688-4.687z" fill="#58ADE5"/><path class="p-AE2538" d="M9.375 27.313A4.69 4.69 0 014.687 32v-9.375a4.69 4.69 0 014.688 4.688z" fill="#4D98CB"/></svg>
